X: 752
T: Ferahfezâ Seyir
C: Şefik Gürmeriç
O: Turkey
F: http://compmusic.upf.edu/node/140
N: ferahfeza--seyir--sofyan--1--sefik_gurmeric
N: makam= ferahfeza
N: form= seyir
N: usul= sofyan = 4/4
M: 4/4
L: 1/16
K: C _B   
Q: 1/4=60
%%MIDI tuningsystem comma53
f6e2 d4 e4  | f6g2 a4 g2f2  | c'2b2 a2g2 g2f2 f2e2  | \
w:   |   |   | 
f12 e2f2  | e2g2 f2e2 e2d2 d2^c2  | 
w:   |   | 
d8 a4 g4  | g2f2 e2d2 e2d2 c2=B2  | c12 d2e2  | \
w:   |   |   | 
f6e2 d4 c2d2  | c2B2 B2A2 A8  | 
w:   |   | 
z4 A2B2 c4 d2_e2  | d2c2 B2A2 B3A G4  | \
w:   |   | 
z4 E2F2 G4 A2B2  | A2G2 F2E2 F2E2 D4  | 
w:   |   | 
E2G2 F2E2 E2D2 ^C2D2  | ^C2D2 EFED D8  | |


